X:1
T:Listen, Listen, Listen
C:Words and music: Paramahansa Yogananda
M:4/4
Q:120
L:1/4
K:Eminor
x "Em"G/F/G/F/ G/-F/E/D/ | "Am7"E E B,2 |
w:Lis-ten, lis-ten, lis-ten to my heart's song,
W:
x "Em"G/F/G/F/ G/-F/E/D/ | "Am7"E E B, E/E/ |
w:Lis-ten, lis-ten, lis-ten to my heart's song, I will
W:
x "G"D/D/D/D/- D/ D/ G/F/ | "C"E/E/E/E/- E/ E/ E/E/ |
w:nev-er for-get you, I will nev-er for-sake you, I will
W:
x "D"D/D/D/D/- D/ D/ G/F/ | "Em"E/E/E/E/- E/ E/-E |]
w:nev-er for-get you, I will nev-er for-sake you.
